src/assets/icons/time,simple,sunrise-time.svg

<svg width="48" height="48" viewBox="0 0 48 48" fill="none" xmlns="http://www.w3.org/2000/svg">
<rect opacity="0.2" x="5" y="5" width="38" height="38" rx="4" fill="black"/>
<path opacity="0.2" fill-rule="evenodd" clip-rule="evenodd" d="M31.9997 43C31.9997 38.5817 28.418 35 23.9997 35C23.9711 35 23.9425 35.0002 23.9139 35.0005C23.8854 35.0002 23.8568 35 23.8281 35C19.4098 35 15.8281 38.5817 15.8281 43H31.9997Z" fill="black"/>
<path fill-rule="evenodd" clip-rule="evenodd" d="M41.9296 41.7222L37.6673 38.1078C37.4276 37.9046 37.2974 37.6006 37.3157 37.2869L37.6786 31.0698C37.7133 30.4748 37.2232 29.9817 36.628 30.0129L29.9385 30.3632C29.6456 30.3785 29.3608 30.2645 29.1594 30.0514L24.6813 25.3131C24.2868 24.8956 23.6224 24.8956 23.2278 25.3131L18.7497 30.0514C18.5483 30.2645 18.2635 30.3785 17.9706 30.3632L11.2811 30.0129C10.6859 29.9817 10.1958 30.4748 10.2305 31.0698L10.5934 37.2869C10.6117 37.6006 10.4815 37.9046 10.2418 38.1078L6.03125 41.6784C6.07603 41.7297 6.12275 41.7797 6.17151 41.8284C7.34308 43 9.2287 43 12.9999 43H15.9999C15.9999 38.5817 19.5817 35 23.9999 35C28.4182 35 31.9999 38.5817 31.9999 43H34.9999C38.7712 43 40.6568 43 41.8284 41.8284C41.8631 41.7937 41.8968 41.7583 41.9296 41.7222Z" fill="black"/>
<path fill-rule="evenodd" clip-rule="evenodd" d="M25.0607 7.93934C24.7794 7.65804 24.3978 7.5 24 7.5C23.6022 7.5 23.2206 7.65804 22.9393 7.93934L18.4393 12.4393C17.8536 13.0251 17.8536 13.9749 18.4393 14.5607C19.0251 15.1464 19.9749 15.1464 20.5607 14.5607L22.5 12.6213V21C22.5 21.8284 23.1716 22.5 24 22.5C24.8284 22.5 25.5 21.8284 25.5 21V12.6213L27.4393 14.5607C28.0251 15.1464 28.9749 15.1464 29.5607 14.5607C30.1464 13.9749 30.1464 13.0251 29.5607 12.4393L25.0607 7.93934Z" fill="black"/>
</svg>

<svg xmlns="http://www.w3.org/2000/svg" width="48" height="48" fill="none" viewBox="0 0 48 48">
  <rect width="38" height="38" x="5" y="5" fill="#000" opacity=".2" rx="4"/>
  <path fill="#000" fill-rule="evenodd" d="M32 43a8 8 0 00-8.172-8 8 8 0 00-8 8H32z" clip-rule="evenodd" opacity=".2"/>
  <path fill="#000" fill-rule="evenodd" d="M41.93 41.722l-4.263-3.614a1 1 0 01-.351-.821l.363-6.217a1 1 0 00-1.051-1.057l-6.69.35a1 1 0 01-.779-.312l-4.478-4.738a1 1 0 00-1.453 0l-4.478 4.738a1 1 0 01-.78.312l-6.689-.35a1 1 0 00-1.05 1.057l.362 6.217a1 1 0 01-.351.82l-4.21 3.571c.044.052.09.102.14.15C7.343 43 9.229 43 13 43h3a8 8 0 0116 0h3c3.771 0 5.657 0 6.828-1.172.035-.034.069-.07.102-.106zM25.06 7.94a1.5 1.5 0 00-2.12 0l-4.5 4.5a1.5 1.5 0 002.12 2.12l1.94-1.939V21a1.5 1.5 0 003 0v-8.379l1.94 1.94a1.5 1.5 0 002.12-2.122l-4.5-4.5z" clip-rule="evenodd"/>
</svg>
